images/customer-logo/nisa.svg

<?xml version="1.0" encoding="UTF-8" standalone="no"?>
<svg
   xmlns:dc="http://purl.org/dc/elements/1.1/"
   xmlns:cc="http://creativecommons.org/ns#"
   xmlns:rdf="http://www.w3.org/1999/02/22-rdf-syntax-ns#"
   xmlns:svg="http://www.w3.org/2000/svg"
   xmlns="http://www.w3.org/2000/svg"
   xmlns:sodipodi="http://sodipodi.sourceforge.net/DTD/sodipodi-0.dtd"
   xmlns:inkscape="http://www.inkscape.org/namespaces/inkscape"
   width="100%"
   height="100%"
   viewBox="0 0 300 100"
   version="1.1"
   xml:space="preserve"
   style="fill-rule:evenodd;clip-rule:evenodd;stroke-linejoin:round;stroke-miterlimit:2;"
   id="svg3616"
   sodipodi:docname="nisa.svg"
   inkscape:version="0.92.5 (2060ec1f9f, 2020-04-08)"><metadata
   id="metadata3622"><rdf:RDF><cc:Work
       rdf:about=""><dc:format>image/svg+xml</dc:format><dc:type
         rdf:resource="http://purl.org/dc/dcmitype/StillImage" /></cc:Work></rdf:RDF></metadata><defs
   id="defs3620" /><sodipodi:namedview
   pagecolor="#ffffff"
   bordercolor="#666666"
   borderopacity="1"
   objecttolerance="10"
   gridtolerance="10"
   guidetolerance="10"
   inkscape:pageopacity="0"
   inkscape:pageshadow="2"
   inkscape:window-width="2800"
   inkscape:window-height="1672"
   id="namedview3618"
   showgrid="false"
   inkscape:zoom="2.36"
   inkscape:cx="150"
   inkscape:cy="50"
   inkscape:window-x="80"
   inkscape:window-y="54"
   inkscape:window-maximized="1"
   inkscape:current-layer="svg3616" />
    <g
   transform="matrix(1.80659,0,0,1.80659,37.181543,3.5099348)"
   id="g3614">
        <g
   id="g5254"
   transform="translate(-371.837,-860.126)">
            <path
   id="path4509"
   d="m 414.174,863.942 h -6.185 c -1.504,0 -2.555,0.99 -2.555,2.416 v 24.38 c -4.37,-6.986 -18.257,-25.092 -18.257,-25.092 -0.757,-1.17 -1.767,-1.704 -3.195,-1.704 h -11.645 l 1.713,2.498 c 0.255,0.372 0.531,1.382 0.531,2.718 v 38.761 c 0,1.423 1.051,2.417 2.552,2.417 h 6.972 v -32.541 c 4.576,7.316 21.796,30.76 21.796,30.76 0.755,1.168 1.768,1.707 3.193,1.707 h 5.867 v -41.104 c 0,-1.336 0.276,-2.346 0.529,-2.718 l 1.718,-2.498 z"
   style="fill:#2e2f79;fill-rule:nonzero"
   inkscape:connector-curvature="0" />
            <path
   id="path4513"
   d="m 421.954,877.828 h -3.397 l 2.168,2.616 c 0.282,0.344 0.662,0.979 0.662,2.534 v 24.866 c 0,1.164 0.823,2.418 2.628,2.418 h 6.751 v -30.019 c 0,-1.163 -0.823,-2.415 -2.628,-2.415 z"
   style="fill:#2e2f79;fill-rule:nonzero"
   inkscape:connector-curvature="0" />
            <path
   id="path4517"
   d="m 435.215,885.102 c 0,4.781 2.332,7.83 7.564,9.892 -0.004,-0.004 4.637,1.841 4.637,1.841 4.111,1.627 4.295,2.373 4.295,3.777 0,1.934 -1.942,2.916 -5.768,2.916 -3.627,0 -6.126,-0.988 -8.184,-1.91 l -1.54,-0.694 -2.787,7.283 1.46,0.587 c 3.864,1.545 7.623,2.3 11.492,2.3 13.139,0 14.556,-7.615 14.556,-10.89 0,-5.197 -2.428,-8.44 -7.876,-10.51 -0.003,-0.002 -6.481,-2.46 -6.481,-2.46 -2.506,-0.975 -2.506,-1.903 -2.506,-2.404 0,-0.815 0,-2.982 5.251,-2.982 1.952,0 5.112,0.599 7.385,1.743 l 2.766,1.393 -1.134,-7.366 c -0.149,-1.116 -0.633,-1.716 -1.778,-2.191 -1.068,-0.409 -3.999,-1.007 -7.826,-1.007 -9.345,0 -13.526,5.366 -13.526,10.682"
   style="fill:#2e2f79;fill-rule:nonzero"
   inkscape:connector-curvature="0" />
            <path
   id="path4521"
   d="m 478.916,874.42 c -4.886,0 -8.957,1.202 -10.427,1.839 -1.558,0.667 -2.343,1.587 -2.343,2.743 0,0.106 0.034,0.221 0.046,0.331 0,0.018 -0.002,0.034 -0.002,0.052 0,0.405 0.126,0.79 0.22,1.077 l 0.084,0.261 0.042,0.127 1.814,4.488 1.61,-0.996 c 0.847,-0.523 3.97,-1.878 8.22,-1.878 5.879,0 7.116,1.877 7.163,5.118 -1.855,-0.225 -4.345,-0.455 -6.871,-0.455 -9.576,0 -15.29,4.558 -15.29,12.188 0,7.155 4.99,11.779 12.713,11.779 4.557,0 7.675,-1.216 9.676,-2.388 0.311,0.85 1.111,1.568 2.476,1.568 h 6.677 v -22.916 c 0,-8.708 -5.172,-12.938 -15.808,-12.938 m 6.431,25.967 c -0.939,0.931 -3.368,2.867 -7.389,2.867 -5.252,0 -5.252,-2.96 -5.252,-4.075 0,-2.118 0.749,-4.553 6.578,-4.553 1.744,0 4.136,0.237 6.063,0.52 z"
   style="fill:#2e2f79;fill-rule:nonzero"
   inkscape:connector-curvature="0" />
        </g>
        <g
   id="path4525"
   transform="translate(-372.337,-859.626)">
            <path
   d="m 491.862,871.752 c -0.003,0.019 -0.003,0.04 0,0.059 0.055,0.297 0.349,0.257 0.526,0.233 0.03,-0.004 0.06,-0.008 0.091,-0.011 0.077,-0.008 0.155,-0.061 0.197,-0.132 0.046,-0.074 0.051,-0.155 0.015,-0.211 -0.154,-0.233 -0.336,-0.436 -0.493,-0.605 -0.059,-0.064 -0.167,-0.063 -0.256,0.004 -0.089,0.063 -0.133,0.174 -0.103,0.26 0.038,0.114 0.046,0.246 0.023,0.404 m -1.064,-1.178 c 0.041,0.076 0.06,0.178 0.059,0.315 -0.019,0.081 -0.027,0.164 -0.034,0.233 0,0.011 -0.002,0.026 -0.003,0.04 -0.004,0.03 -0.004,0.055 -0.011,0.085 -0.031,0.111 0.034,0.203 0.141,0.205 0.108,0.002 0.22,-0.087 0.251,-0.199 0,-0.003 10e-4,-0.004 10e-4,-0.008 0,0.004 0,0.004 -10e-4,0.004 0.038,-0.141 0.058,-0.28 0.062,-0.412 0.004,-0.011 0.008,-0.019 0.008,-0.027 l 0.168,0.09 c 0.079,0.042 0.192,0.011 0.265,-0.074 0.076,-0.086 0.09,-0.198 0.034,-0.265 l -0.089,-0.101 c -0.022,-0.023 -0.052,-0.043 -0.088,-0.047 l -0.114,-0.019 -0.323,-0.158 c -0.128,-0.192 -0.326,-0.334 -0.592,-0.414 -0.081,-0.026 -0.184,0.015 -0.25,0.098 -0.065,0.083 -0.074,0.185 -0.022,0.249 0.129,0.163 0.3,0.288 0.54,0.404 m 0.745,-0.045 c 0.003,0.038 -0.004,0.08 -0.026,0.121 0,0.002 -0.002,0.003 -0.002,0.003 l -0.004,-0.003 c 0.023,-0.041 0.031,-0.081 0.031,-0.12 z m -0.048,0.147 h 0.003 c -0.034,0.048 -0.079,0.083 -0.13,0.101 l -10e-4,-0.002 c 0.051,-0.018 0.096,-0.053 0.128,-0.1 m -0.45,0.372 c 0.002,0 0.003,-10e-4 0.007,-10e-4 -0.003,0 -0.004,10e-4 -0.007,10e-4 m 2.68,2.836 c 0.002,0.008 0.002,0.015 0.003,0.019 -0.09,-0.42 -0.592,-0.431 -1.122,-0.445 -0.327,-0.008 -0.656,-0.023 -0.907,-0.119 0.004,-0.004 0.008,-0.011 0.008,-0.015 0.12,-0.18 0.254,-0.387 0.192,-0.551 -0.019,-0.049 -0.074,-0.133 -0.227,-0.136 0.015,0 0.026,0.003 0.041,0.004 -0.201,-0.052 -0.4,-0.089 -0.591,-0.127 -0.408,-0.077 -0.76,-0.144 -1.036,-0.326 -0.019,-0.011 -0.045,-0.015 -0.07,-0.019 -0.027,-0.04 -0.031,-0.215 -0.027,-0.321 -10e-4,-0.27 0,-0.64 -0.328,-0.623 0.019,-0.001 0.038,10e-4 0.053,0.004 -0.429,-0.112 -2.034,-0.071 -2.298,0.395 -0.072,0.129 -0.095,0.313 0.214,0.461 0.426,0.204 0.804,0.366 1.171,0.525 0.637,0.273 1.187,0.511 1.791,0.883 0.011,0.004 0.022,0.011 0.034,0.015 0.842,0.253 1.814,0.569 2.672,1.076 0.156,0.14 0.244,0.331 0.338,0.532 l 0.023,0.052 c 0.039,0.087 0.149,0.109 0.252,0.052 0.101,-0.06 0.16,-0.176 0.135,-0.27 -0.084,-0.304 -0.188,-0.67 -0.326,-1.07 m 2.996,1.363 c -0.015,-0.057 -0.057,-0.099 -0.116,-0.109 -0.182,-0.03 -0.309,-0.049 -0.404,-0.06 -0.133,-0.682 -0.749,-1.034 -1.72,-0.963 -0.062,0.004 -0.126,0.038 -0.174,0.091 -0.047,0.052 -0.071,0.118 -0.067,0.177 l 0.034,0.461 c 0.004,0.071 0.05,0.123 0.117,0.136 0.224,0.045 0.379,0.003 0.484,-0.056 0.122,0.18 0.254,0.336 0.388,0.476 -0.002,0.019 -0.007,0.038 -0.003,0.054 0.003,0.052 0.034,0.096 0.077,0.117 l 0.223,0.112 c 0.085,0.078 0.171,0.152 0.254,0.224 l 0.246,0.215 c 0.038,0.03 0.093,0.044 0.153,0.03 0.058,-0.015 0.115,-0.049 0.155,-0.101 0.022,-0.034 0.052,-0.068 0.081,-0.103 0.146,-0.173 0.343,-0.411 0.273,-0.7 m -7.421,-4.453 0.236,0.105 c 0.058,0.027 0.134,0.015 0.201,-0.026 0.066,-0.044 0.111,-0.115 0.122,-0.186 0.062,-0.456 -0.253,-1.518 -0.366,-1.588 -1.629,-0.965 -3,-1.717 -4.312,-2.372 -0.047,-0.022 -0.107,-0.022 -0.165,0.003 -0.039,0.015 -0.075,0.038 -0.111,0.052 -0.053,0.027 -0.126,0.062 -0.16,0.067 -0.034,-0.162 -0.092,-0.303 -0.184,-0.419 -0.011,-0.015 -0.026,-0.03 -0.047,-0.038 l -0.62,-0.313 c -0.015,-0.008 -0.03,-0.015 -0.049,-0.015 l -0.019,-0.004 c -0.015,-0.019 -0.03,-0.034 -0.055,-0.045 l -1.453,-0.666 c -0.011,-0.003 -0.027,-0.007 -0.04,-0.011 l -0.059,-0.011 c -0.111,-0.019 -0.214,-0.038 -0.312,-0.044 0.003,-10e-4 -0.063,-0.008 -0.063,-0.008 -0.411,-0.037 -0.664,-0.073 -0.675,-0.341 -0.003,-0.061 -0.038,-0.111 -0.089,-0.132 l -0.267,-0.109 c -0.008,-0.004 -0.019,0 -0.027,-0.003 -0.007,-0.003 -0.011,-0.011 -0.019,-0.015 l -1.13,-0.466 c -0.499,-0.203 -1.027,-0.387 -1.536,-0.567 l -0.772,-0.275 c -6.188,-1.824 -8.818,-2.333 -15.636,-3.031 -2.96,-0.17 -6.739,-0.24 -10.375,-0.192 -9.231,0.552 -14.543,1.584 -20.211,3.536 -4.89,1.684 -7.13,3.058 -10.008,5.844 l -0.317,0.398 c -0.011,0.007 -0.023,0.019 -0.03,0.03 -0.86,0.981 -1.28,1.897 -1.243,2.721 0.039,0.896 0.636,1.672 1.681,2.187 0.016,0.008 0.031,0.015 0.034,0.019 0.008,0.004 0.019,0.007 0.027,0.011 3.115,1.055 7.016,-0.566 8.549,-1.313 0.087,-0.043 0.151,-0.134 0.155,-0.222 0.004,-0.089 -0.052,-0.153 -0.137,-0.161 -0.516,-0.041 -0.564,-0.189 -0.567,-0.219 -0.011,-0.063 0.066,-0.176 0.201,-0.301 0.76,-0.697 2.883,-1.436 4.48,-0.999 0.008,0.002 0.019,0.003 0.027,0.004 2.161,0.233 4.332,-0.657 6.431,-1.519 1.897,-0.778 3.858,-1.582 5.888,-1.621 0.668,0.011 1.57,-0.075 2.445,-0.159 0.493,-0.048 1.004,-0.096 1.461,-0.126 2.358,0.034 4.702,-0.14 6.966,-0.309 3.762,-0.278 7.657,-0.567 11.66,0.122 1.144,0.177 2.326,0.038 3.472,-0.097 0.584,-0.067 1.134,-0.132 1.668,-0.154 0.633,0.053 1.182,0.31 1.713,0.559 0.356,0.168 0.691,0.326 1.029,0.409 1.208,0.371 2.412,0.431 3.575,0.49 l 0.147,0.007 c 0.101,0.004 0.209,-0.07 0.249,-0.176 0.04,-0.105 -10e-4,-0.204 -0.095,-0.227 -0.642,-0.158 -1.217,-0.24 -1.825,-0.328 -0.52,-0.074 -1.058,-0.153 -1.672,-0.283 0.377,-0.171 1.238,-0.407 1.685,-0.42 0.012,0 0.019,-0.003 0.031,-0.004 0.04,0.03 0.086,0.194 0.112,0.286 0.062,0.223 0.147,0.518 0.426,0.487 0.382,0.119 0.816,0.087 1.278,0.052 0.19,-0.019 0.388,-0.03 0.585,-0.034 -0.015,0.05 -0.038,0.109 -0.053,0.148 -0.063,0.165 -0.116,0.308 -0.038,0.407 0.043,0.052 0.114,0.071 0.196,0.052 -0.023,0.004 -0.046,0.008 -0.069,0.004 0.419,0.053 0.895,-0.061 1.316,-0.163 0.436,-0.106 0.848,-0.205 0.981,-0.054 0.293,0.264 0.535,0.514 0.751,0.777 0.004,0.007 0.011,0.015 0.019,0.019 0.166,0.138 0.352,0.281 0.598,0.358 0.016,0.004 0.031,0.008 0.047,0.008 l 0.516,0.011 c 1.293,0.064 2.607,0.283 3.696,0.616 0.049,0.015 0.104,0.008 0.153,-0.019 m -12.249,-6.908 c 0.137,0.031 0.251,0.115 0.347,0.263 -0.131,-0.056 -0.248,-0.144 -0.347,-0.263 m 10.948,5.354 c -0.059,0.038 -0.123,0.041 -0.172,0.026 l 10e-4,-0.004 h -0.003 c -0.019,-0.003 -0.038,-0.015 -0.05,-0.026 l 0.004,-0.048 c 0.08,0.015 0.16,0.026 0.233,0.045 -0.003,0.003 -0.007,0.008 -0.011,0.008 m 0.281,0.066 c 0.286,0.106 0.487,0.287 0.526,0.652 -0.199,-0.167 -0.379,-0.377 -0.526,-0.652 m 0.542,0.667 c 0.007,-0.051 0.026,-0.103 0.069,-0.144 0.049,-0.053 0.117,-0.084 0.181,-0.084 0.107,0.003 0.169,0.091 0.144,0.202 -0.023,0.086 -0.093,0.161 -0.177,0.19 -0.073,-0.049 -0.147,-0.104 -0.217,-0.164 m 0.43,0.296 c -0.065,-0.038 -0.131,-0.077 -0.194,-0.12 l 0.265,-0.011 c -0.015,0.034 -0.038,0.079 -0.071,0.131"
   style="fill:#f2ce3b;fill-rule:nonzero"
   id="path3611"
   inkscape:connector-curvature="0" />
        </g>
    </g>
</svg>

<?xml version="1.0" encoding="UTF-8" standalone="no"?>
<!DOCTYPE svg PUBLIC "-//W3C//DTD SVG 1.1//EN" "http://www.w3.org/Graphics/SVG/1.1/DTD/svg11.dtd">
<svg width="100%" height="100%" viewBox="0 0 300 100" version="1.1" xmlns="http://www.w3.org/2000/svg" xmlns:xlink="http://www.w3.org/1999/xlink" xml:space="preserve" xmlns:serif="http://www.serif.com/" style="fill-rule:evenodd;clip-rule:evenodd;stroke-linejoin:round;stroke-miterlimit:2;">
    <g transform="matrix(1.80659,0,0,1.80659,0.298302,2.7135)">
        <g id="g5254" transform="matrix(1,0,0,1,-371.837,-860.126)">
            <path id="path4509" d="M414.174,863.942L407.989,863.942C406.485,863.942 405.434,864.932 405.434,866.358L405.434,890.738C401.064,883.752 387.177,865.646 387.177,865.646C386.42,864.476 385.41,863.942 383.982,863.942L372.337,863.942L374.05,866.44C374.305,866.812 374.581,867.822 374.581,869.158L374.581,907.919C374.581,909.342 375.632,910.336 377.133,910.336L384.105,910.336L384.105,877.795C388.681,885.111 405.901,908.555 405.901,908.555C406.656,909.723 407.669,910.262 409.094,910.262L414.961,910.262L414.961,869.158C414.961,867.822 415.237,866.812 415.49,866.44L417.208,863.942L414.174,863.942Z" style="fill:rgb(46,47,121);fill-rule:nonzero;"/>
            <path id="path4513" d="M421.954,877.828L418.557,877.828L420.725,880.444C421.007,880.788 421.387,881.423 421.387,882.978L421.387,907.844C421.387,909.008 422.21,910.262 424.015,910.262L430.766,910.262L430.766,880.243C430.766,879.08 429.943,877.828 428.138,877.828L421.954,877.828Z" style="fill:rgb(46,47,121);fill-rule:nonzero;"/>
            <path id="path4517" d="M435.215,885.102C435.215,889.883 437.547,892.932 442.779,894.994C442.775,894.99 447.416,896.835 447.416,896.835C451.527,898.462 451.711,899.208 451.711,900.612C451.711,902.546 449.769,903.528 445.943,903.528C442.316,903.528 439.817,902.54 437.759,901.618L436.219,900.924L433.432,908.207L434.892,908.794C438.756,910.339 442.515,911.094 446.384,911.094C459.523,911.094 460.94,903.479 460.94,900.204C460.94,895.007 458.512,891.764 453.064,889.694C453.061,889.692 446.583,887.234 446.583,887.234C444.077,886.259 444.077,885.331 444.077,884.83C444.077,884.015 444.077,881.848 449.328,881.848C451.28,881.848 454.44,882.447 456.713,883.591L459.479,884.984L458.345,877.618C458.196,876.502 457.712,875.902 456.567,875.427C455.499,875.018 452.568,874.42 448.741,874.42C439.396,874.42 435.215,879.786 435.215,885.102" style="fill:rgb(46,47,121);fill-rule:nonzero;"/>
            <path id="path4521" d="M478.916,874.42C474.03,874.42 469.959,875.622 468.489,876.259C466.931,876.926 466.146,877.846 466.146,879.002C466.146,879.108 466.18,879.223 466.192,879.333C466.192,879.351 466.19,879.367 466.19,879.385C466.19,879.79 466.316,880.175 466.41,880.462L466.494,880.723L466.536,880.85L468.35,885.338L469.96,884.342C470.807,883.819 473.93,882.464 478.18,882.464C484.059,882.464 485.296,884.341 485.343,887.582C483.488,887.357 480.998,887.127 478.472,887.127C468.896,887.127 463.182,891.685 463.182,899.315C463.182,906.47 468.172,911.094 475.895,911.094C480.452,911.094 483.57,909.878 485.571,908.706C485.882,909.556 486.682,910.274 488.047,910.274L494.724,910.274L494.724,887.358C494.724,878.65 489.552,874.42 478.916,874.42M485.347,900.387C484.408,901.318 481.979,903.254 477.958,903.254C472.706,903.254 472.706,900.294 472.706,899.179C472.706,897.061 473.455,894.626 479.284,894.626C481.028,894.626 483.42,894.863 485.347,895.146L485.347,900.387Z" style="fill:rgb(46,47,121);fill-rule:nonzero;"/>
        </g>
        <g id="path4525" transform="matrix(1,0,0,1,-372.337,-859.626)">
            <path d="M491.862,871.752C491.859,871.771 491.859,871.792 491.862,871.811C491.917,872.108 492.211,872.068 492.388,872.044C492.418,872.04 492.448,872.036 492.479,872.033C492.556,872.025 492.634,871.972 492.676,871.901C492.722,871.827 492.727,871.746 492.691,871.69C492.537,871.457 492.355,871.254 492.198,871.085C492.139,871.021 492.031,871.022 491.942,871.089C491.853,871.152 491.809,871.263 491.839,871.349C491.877,871.463 491.885,871.595 491.862,871.753M490.798,870.575C490.839,870.651 490.858,870.753 490.857,870.89C490.838,870.971 490.83,871.054 490.823,871.123C490.823,871.134 490.821,871.149 490.82,871.163C490.816,871.193 490.816,871.218 490.809,871.248C490.778,871.359 490.843,871.451 490.95,871.453C491.058,871.455 491.17,871.366 491.201,871.254C491.201,871.251 491.202,871.25 491.202,871.246C491.202,871.25 491.202,871.25 491.201,871.25C491.239,871.109 491.259,870.97 491.263,870.838C491.267,870.827 491.271,870.819 491.271,870.811L491.439,870.901C491.518,870.943 491.631,870.912 491.704,870.827C491.78,870.741 491.794,870.629 491.738,870.562L491.649,870.461C491.627,870.438 491.597,870.418 491.561,870.414L491.447,870.395L491.124,870.237C490.996,870.045 490.798,869.903 490.532,869.823C490.451,869.797 490.348,869.838 490.282,869.921C490.217,870.004 490.208,870.106 490.26,870.17C490.389,870.333 490.56,870.458 490.8,870.574M491.545,870.529C491.548,870.567 491.541,870.609 491.519,870.65C491.519,870.652 491.517,870.653 491.517,870.653L491.513,870.65C491.536,870.609 491.544,870.569 491.544,870.53L491.545,870.529ZM491.497,870.676L491.5,870.676C491.466,870.724 491.421,870.759 491.37,870.777L491.369,870.775C491.42,870.757 491.465,870.722 491.497,870.675M491.047,871.047C491.049,871.047 491.05,871.046 491.054,871.046C491.051,871.046 491.05,871.047 491.047,871.047M493.727,873.883C493.729,873.891 493.729,873.898 493.73,873.902C493.64,873.482 493.138,873.471 492.608,873.457C492.281,873.449 491.952,873.434 491.701,873.338C491.705,873.334 491.709,873.327 491.709,873.323C491.829,873.143 491.963,872.936 491.901,872.772C491.882,872.723 491.827,872.639 491.674,872.636C491.689,872.636 491.7,872.639 491.715,872.64C491.514,872.588 491.315,872.551 491.124,872.513C490.716,872.436 490.364,872.369 490.088,872.187C490.069,872.176 490.043,872.172 490.018,872.168C489.991,872.128 489.987,871.953 489.991,871.847C489.99,871.577 489.991,871.207 489.663,871.224C489.682,871.223 489.701,871.225 489.716,871.228C489.287,871.116 487.682,871.157 487.418,871.623C487.346,871.752 487.323,871.936 487.632,872.084C488.058,872.288 488.436,872.45 488.803,872.609C489.44,872.882 489.99,873.12 490.594,873.492C490.605,873.496 490.616,873.503 490.628,873.507C491.47,873.76 492.442,874.076 493.3,874.583C493.456,874.723 493.544,874.914 493.638,875.115L493.661,875.167C493.7,875.254 493.81,875.276 493.913,875.219C494.014,875.159 494.073,875.043 494.048,874.949C493.964,874.645 493.86,874.279 493.722,873.879M496.718,875.242C496.703,875.185 496.661,875.143 496.602,875.133C496.42,875.103 496.293,875.084 496.198,875.073C496.065,874.391 495.449,874.039 494.478,874.11C494.416,874.114 494.352,874.148 494.304,874.201C494.257,874.253 494.233,874.319 494.237,874.378L494.271,874.839C494.275,874.91 494.321,874.962 494.388,874.975C494.612,875.02 494.767,874.978 494.872,874.919C494.994,875.099 495.126,875.255 495.26,875.395C495.258,875.414 495.253,875.433 495.257,875.449C495.26,875.501 495.291,875.545 495.334,875.566L495.557,875.678C495.642,875.756 495.728,875.83 495.811,875.902L496.057,876.117C496.095,876.147 496.15,876.161 496.21,876.147C496.268,876.132 496.325,876.098 496.365,876.046C496.387,876.012 496.417,875.978 496.446,875.943C496.592,875.77 496.789,875.532 496.719,875.243M489.298,870.79L489.534,870.895C489.592,870.922 489.668,870.91 489.735,870.869C489.801,870.825 489.846,870.754 489.857,870.683C489.919,870.227 489.604,869.165 489.491,869.095C487.862,868.13 486.491,867.378 485.179,866.723C485.132,866.701 485.072,866.701 485.014,866.726C484.975,866.741 484.939,866.764 484.903,866.778C484.85,866.805 484.777,866.84 484.743,866.845C484.709,866.683 484.651,866.542 484.559,866.426C484.548,866.411 484.533,866.396 484.512,866.388L483.892,866.075C483.877,866.067 483.862,866.06 483.843,866.06L483.824,866.056C483.809,866.037 483.794,866.022 483.769,866.011L482.316,865.345C482.305,865.342 482.289,865.338 482.276,865.334L482.217,865.323C482.106,865.304 482.003,865.285 481.905,865.279C481.908,865.278 481.842,865.271 481.842,865.271C481.431,865.234 481.178,865.198 481.167,864.93C481.164,864.869 481.129,864.819 481.078,864.798L480.811,864.689C480.803,864.685 480.792,864.689 480.784,864.686C480.777,864.683 480.773,864.675 480.765,864.671L479.635,864.205C479.136,864.002 478.608,863.818 478.099,863.638L477.327,863.363C471.139,861.539 468.509,861.03 461.691,860.332C458.731,860.162 454.952,860.092 451.316,860.14C442.085,860.692 436.773,861.724 431.105,863.676C426.215,865.36 423.975,866.734 421.097,869.52L420.78,869.918C420.769,869.925 420.757,869.937 420.75,869.948C419.89,870.929 419.47,871.845 419.507,872.669C419.546,873.565 420.143,874.341 421.188,874.856C421.204,874.864 421.219,874.871 421.222,874.875C421.23,874.879 421.241,874.882 421.249,874.886C424.364,875.941 428.265,874.32 429.798,873.573C429.885,873.53 429.949,873.439 429.953,873.351C429.957,873.262 429.901,873.198 429.816,873.19C429.3,873.149 429.252,873.001 429.249,872.971C429.238,872.908 429.315,872.795 429.45,872.67C430.21,871.973 432.333,871.234 433.93,871.671C433.938,871.673 433.949,871.674 433.957,871.675C436.118,871.908 438.289,871.018 440.388,870.156C442.285,869.378 444.246,868.574 446.276,868.535C446.944,868.546 447.846,868.46 448.721,868.376C449.214,868.328 449.725,868.28 450.182,868.25C452.54,868.284 454.884,868.11 457.148,867.941C460.91,867.663 464.805,867.374 468.808,868.063C469.952,868.24 471.134,868.101 472.28,867.966C472.864,867.899 473.414,867.834 473.948,867.812C474.581,867.865 475.13,868.122 475.661,868.371C476.017,868.539 476.352,868.697 476.69,868.78C477.898,869.151 479.102,869.211 480.265,869.27L480.412,869.277C480.513,869.281 480.621,869.207 480.661,869.101C480.701,868.996 480.66,868.897 480.566,868.874C479.924,868.716 479.349,868.634 478.741,868.546C478.221,868.472 477.683,868.393 477.069,868.263C477.446,868.092 478.307,867.856 478.754,867.843C478.766,867.843 478.773,867.84 478.785,867.839C478.825,867.869 478.871,868.033 478.897,868.125C478.959,868.348 479.044,868.643 479.323,868.612C479.705,868.731 480.139,868.699 480.601,868.664C480.791,868.645 480.989,868.634 481.186,868.63C481.171,868.68 481.148,868.739 481.133,868.778C481.07,868.943 481.017,869.086 481.095,869.185C481.138,869.237 481.209,869.256 481.291,869.237C481.268,869.241 481.245,869.245 481.222,869.241C481.641,869.294 482.117,869.18 482.538,869.078C482.974,868.972 483.386,868.873 483.519,869.024C483.812,869.288 484.054,869.538 484.27,869.801C484.274,869.808 484.281,869.816 484.289,869.82C484.455,869.958 484.641,870.101 484.887,870.178C484.903,870.182 484.918,870.186 484.934,870.186L485.45,870.197C486.743,870.261 488.057,870.48 489.146,870.813C489.195,870.828 489.25,870.821 489.299,870.794M477.05,863.886C477.187,863.917 477.301,864.001 477.397,864.149C477.266,864.093 477.149,864.005 477.05,863.886M487.998,869.24C487.939,869.278 487.875,869.281 487.826,869.266L487.827,869.262L487.824,869.262C487.805,869.259 487.786,869.247 487.774,869.236L487.778,869.188C487.858,869.203 487.938,869.214 488.011,869.233C488.008,869.236 488.004,869.241 488,869.241M488.281,869.307C488.567,869.413 488.768,869.594 488.807,869.959C488.608,869.792 488.428,869.582 488.281,869.307M488.823,869.974C488.83,869.923 488.849,869.871 488.892,869.83C488.941,869.777 489.009,869.746 489.073,869.746C489.18,869.749 489.242,869.837 489.217,869.948C489.194,870.034 489.124,870.109 489.04,870.138C488.967,870.089 488.893,870.034 488.823,869.974M489.253,870.27C489.188,870.232 489.122,870.193 489.059,870.15L489.324,870.139C489.309,870.173 489.286,870.218 489.253,870.27" style="fill:rgb(242,206,59);fill-rule:nonzero;"/>
        </g>
    </g>
</svg>
